!!!COM: Palestrina, Giovanni Perluigi da
!!!OPR: Ave Maria (1594)
!!!OTL: Agnus I
**kern	**kern	**kern	**kern
*Ibass	*Itenor	*Icalto	*Icant
!Bassus	!Tenor	!Altus	!Cantus
*clefF4	*clefGv2	*clefG2	*clefG2
*k[]	*k[]	*k[]	*k[]
*A:aeo	*A:aeo	*A:aeo	*A:aeo
*M4/2	*M4/2	*M4/2	*M4/2
=1	=1	=1	=1
0r	0c	0r	0r
=2	=2	=2	=2
1r	1G	0r	0r
[1F	2.A	.	.
.	4B	.	.
=3	=3	=3	=3
1F]	2c	0r	0r
.	2d	.	.
1C	1e	.	.
=4	=4	=4	=4
2.D	1.f	0r	0r
4E	.	.	.
2F	.	.	.
2G	4e	.	.
.	4d	.	.
=5	=5	=5	=5
1A	2f	1r	0r
.	2e	.	.
[1B-	[1d	[1f	.
=6	=6	=6	=6
2B-]	1d]	1f]	0r
4A	.	.	.
4G	.	.	.
1A	2r	1c	.
.	2e	.	.
=7	=7	=7	=7
2D	1f	2.d	0r
2.d	.	.	.
.	.	4e	.
.	1d	2f	.
4c	.	.	.
2B	.	2g	.
=8	=8	=8	=8
2.A	2e	1a	0cc
.	1f	.	.
4B	.	.	.
[1c	.	1g	.
.	4e	.	.
.	4d	.	.
=9	=9	=9	=9
1c]	1e	0cc	1g
2F	2f	.	2.a
[2A	[2e	.	.
.	.	.	4b
=10	=10	=10	=10
4A]	2e]	1a	2cc
4G	.	.	.
2F	1d	.	2dd
1E	.	1g	1ee
.	2c#	.	.
=11	=11	=11	=11
1D	1d	2f	1.ff
.	.	1a	.
2r	1B-	.	.
[2d	.	2g	4ee
.	.	.	4dd
=12	=12	=12	=12
2d]	1A	0a	2ff
2c#	.	.	2.ee
1d	1f	.	.
.	.	.	4dd
.	.	.	2dd
=13	=13	=13	=13
1A	2e	2r	2.cc
.	2c	1a	.
.	.	.	8b
.	.	.	8a
1r	2d	.	1b
.	2e	2g#	.
=14	=14	=14	=14
2r	1A	1a	2a
2A	.	.	2cc
2A	2r	1e	2cc
4G	2e	.	4b
4F	.	.	4a
=15	=15	=15	=15
2G	1.e	1r	2b
2.A	.	.	2cc
.	.	2r	1a
4G	.	.	.
4F	4d	2a	.
4E	4c	.	.
=16	=16	=16	=16
1F	1d	1.a	1r
1E	1e	.	2r
.	.	4g	2ee
.	.	4f	.
=17	=17	=17	=17
0r	0r	2g	1.ee
.	.	2.a	.
.	.	4g	.
.	.	4f	4dd
.	.	4e	4cc
=18	=18	=18	=18
1r	2r	1f	1dd
.	1d	.	.
1A	.	1e	1ee
.	[2c	.	.
=19	=19	=19	=19
1G	2c]	0r	0r
.	2B	.	.
2F	2A	.	.
[2G	[2B	.	.
=20	=20	=20	=20
4G]	4B]	2r	0r
4F	4c	.	.
2D	2.d	1a	.
1E	.	.	.
.	4c	.	.
.	2c	[2g	.
=21	=21	=21	=21
4D	2d	2g]	1r
4E	.	.	.
4F	1a	2f	.
4G	.	.	.
4A	.	1e	1ee
4B	.	.	.
2c	[2g	.	.
=22	=22	=22	=22
1d	2g]	1a	1dd
.	2f	.	.
1r	2e	2A	2cc
.	[2f	2d	[2dd
=23	=23	=23	=23
0r	4f]	2d	4dd]
.	4g	.	4cc
.	1a	2f	2a
.	.	1e	1b
.	2g#	.	.
=24	=24	=24	=24
0F	1a	2A	0a
.	.	1c	.
.	1A	.	.
.	.	[2d	.
=25	=25	=25	=25
1G	1B	2d]	0r
.	.	1e	.
[1A	[1c	.	.
.	.	2e	.
=26	=26	=26	=26
2A]	2c]	2f	1r
2G	2B	2.e	.
1F	2A	.	2r
.	.	4d	.
.	2f	[2d	2dd
=27	=27	=27	=27
1E	1g	4d]	1ee
.	.	4c#	.
.	.	4c#	.
.	.	4B	.
4D	[1a	1d	[1ff
4E	.	.	.
4F	.	.	.
4G	.	.	.
=28	=28	=28	=28
4A	2a]	1r	2ff]
4B	.	.	.
2c	2g	.	2ee
1d	1f	[1a	1dd
=29	=29	=29	=29
1A	1e	0a]	1cc#
2r	[1d	.	[1dd
2F	.	.	.
=30	=30	=30	=30
1G	1d]	1b	1dd]
[1A	1r	[1cc	2r
.	.	.	[2a
=31	=31	=31	=31
2A]	0r	2cc]	2a]
2G	.	2b	2b
1F	.	1a	2cc
.	.	.	2dd
=32	=32	=32	=32
1E	1c	1g	4ee
.	.	.	4ff
.	.	.	4gg
.	.	.	4ee
1D	1d	2r	4ff
.	.	.	4ee
.	.	2f	4dd
.	.	.	4cc
=33	=33	=33	=33
2r	1.e	2g	2b
2A	.	2a	2.cc
2E	.	1g	.
.	.	.	4b
2G	2d	.	[2b
=34	=34	=34	=34
1A	1c	0e	4b]
.	.	.	4a
.	.	.	2.a
1E	1B	.	.
.	.	.	8g#
.	.	.	8f#
.	.	.	2g#
=35	=35	=35	=35
0A	0A	0e	0a
==	==	==	==
*-	*-	*-	*-
!!!CDT: 1525/^1526/-1594/2/2
!!!OCY: Italia
!!!AGN: Mass (Paraphrase)
!!!AST: renaissance, vocal
!!!ASW: Prayer
!!!PWK: Masses, Book 7
!!!RNB: Cadence finals: D
!!!YOR: Le Opere Complete, v. 23, p. 1
!!!YOO: Rome, Italy: Fratelli Scalera
!!!END: 1992//
!!!EED: John Miller
!!!YEC: Copyright 2000, John Miller
!!!YEN: United States of America
!!!YEM: Rights to all derivative electronic formats reserved.
!!!YEM: Refer to licensing agreement for further details.
!!!YEM: This file must be accompanied by the licensing agreement.
!!!YEM: A copy of the licensing agreement may be found at http://www.music-cog.ohio-state.edu/HumdrumDatabases/Palestrina/license.txt
!!!EMD: converted to Humdrum by Bret Aarden
